src/renderer/assets/icon/reset-active-icon.svg

<?xml version="1.0" encoding="UTF-8"?>
<svg width="13px" height="13px" viewBox="0 0 13 13" version="1.1" xmlns="http://www.w3.org/2000/svg" xmlns:xlink="http://www.w3.org/1999/xlink">
    <!-- Generator: Sketch 52.2 (67145) - http://www.bohemiancoding.com/sketch -->
    <desc>Created with Sketch.</desc>
    <defs>
        <radialGradient cx="84.2036702%" cy="81.3988863%" fx="84.2036702%" fy="81.3988863%" r="114.30679%" id="radialGradient-1">
            <stop stop-color="#FFFFFF" stop-opacity="0.775928442" offset="0%"></stop>
            <stop stop-color="#FFFFFF" stop-opacity="0.508378623" offset="100%"></stop>
        </radialGradient>
    </defs>
    <g id="Icons/reset-active-icon" stroke="none" stroke-width="1" fill="none" fill-rule="evenodd" fill-opacity="0.2" stroke-opacity="0.04">
        <path d="M3.35771774,7.40132644 L4.85060785,7.40132644 C4.90701662,7.40132644 4.96176749,7.42040344 5.00596242,7.45545706 C5.11413735,7.54125702 5.13227585,7.69850474 5.04647694,7.8066805 C4.15496168,8.93068576 3.62302364,9.58504003 3.45066284,9.76974332 C3.40832745,9.81511027 3.31792723,9.94003506 3.156619,9.94960381 C2.99531078,9.95917256 2.90076844,9.85085808 2.84560444,9.78313963 C2.76807744,9.6879687 2.68114838,9.59142256 2.54043208,9.37650771 C2.46472764,9.26088494 2.34424179,9.03389504 2.17897452,8.69553801 C2.14349766,8.62746912 2.1102525,8.55813725 2.07863106,8.48791645 C2.07008796,8.47007138 2.06144673,8.45198225 2.05270737,8.43364908 L2.05368294,8.43155505 C1.79623856,7.83975441 1.65348458,7.18654819 1.65348458,6.5 C1.65348458,6.13933947 1.69287978,5.78788019 1.76760178,5.44969058 C2.24743207,3.2779924 4.18400397,1.65348458 6.5,1.65348458 C9.17665656,1.65348458 11.3465154,3.82334344 11.3465154,6.5 C11.3465154,9.17665656 9.17665656,11.3465154 6.5,11.3465154 C6.43467182,11.3465154 6.32621827,11.3170119 6.28195703,11.2858617 C6.2253921,11.2460523 6.12406125,11.1711745 6.12578931,10.9989162 C6.16005794,10.5721236 6.18669544,10.2403715 6.20570183,10.0036598 C6.22371095,9.89040935 6.2464447,9.76815212 6.5,9.76815212 C8.30495057,9.76815212 9.76815212,8.30495057 9.76815212,6.5 C9.76815212,4.69504943 8.30495057,3.23184788 6.5,3.23184788 C4.69504943,3.23184788 3.23184788,4.69504943 3.23184788,6.5 C3.23184788,6.81263799 3.27574713,7.11502276 3.35771774,7.40132644 Z" id="Combined-Shape" stroke="#FFFFFF" stroke-width="0.5" fill="url(#radialGradient-1)" transform="translate(6.500000, 6.500000) rotate(-4.000000) translate(-6.500000, -6.500000) "></path>
    </g>
</svg>

<svg width="13" height="13" xmlns="http://www.w3.org/2000/svg">
    <defs>
        <radialGradient cx="84.204%" cy="81.399%" fx="84.204%" fy="81.399%" r="114.307%" id="a">
            <stop stop-color="#FFF" stop-opacity=".776" offset="0%"/>
            <stop stop-color="#FFF" stop-opacity=".508" offset="100%"/>
        </radialGradient>
    </defs>
    <path d="M3.358 7.401H4.85a.25.25 0 01.195.406C4.155 8.93 3.623 9.585 3.451 9.77c-.043.045-.133.17-.294.18-.162.01-.256-.1-.311-.167-.078-.095-.165-.192-.306-.406a7.408 7.408 0 01-.361-.681 4.022 4.022 0 01-.126-.262v-.002a4.864 4.864 0 01-.286-2.982 4.848 4.848 0 019.58 1.05A4.847 4.847 0 016.5 11.347a.485.485 0 01-.218-.061.321.321 0 01-.156-.287c.034-.427.06-.759.08-.995.018-.114.04-.236.294-.236a3.268 3.268 0 10-3.142-2.367z" stroke="#FFF" stroke-width=".5" fill="url(#a)" transform="rotate(-4 6.5 6.5)" fill-rule="evenodd" fill-opacity=".2" stroke-opacity=".04"/>
</svg>
